public/img/messenger.svg

<svg fill="none" height="24" viewBox="0 0 24 24" width="24" xmlns="http://www.w3.org/2000/svg" xmlns:xlink="http://www.w3.org/1999/xlink"><radialGradient id="a" cx="0" cy="0" gradientTransform="matrix(11.56189885 -17.86650409 17.86650409 11.56189885 5.99364 21.6553)" gradientUnits="userSpaceOnUse" r="1"><stop offset="0" stop-color="#09f"/><stop offset=".61" stop-color="#a033ff"/><stop offset=".935" stop-color="#ff5280"/><stop offset="1" stop-color="#ff7061"/></radialGradient><g clip-rule="evenodd" fill-rule="evenodd"><path d="m12 2.2285c-5.50125 0-9.76575 4.02975-9.76575 9.4725 0 2.8472 1.167 5.3075 3.067 7.0065.07924.0701.14337.1557.18849.2514.04513.0957.07031.1996.07401.3053l.053 1.7376c.017.5537.5895.9144 1.0965.6907l1.93825-.8558c.16431-.0725.34863-.086.52175-.0382.92115.2512 1.87195.3774 2.82675.3752 5.5013 0 9.7658-4.0295 9.7658-9.4725 0-5.44295-4.2645-9.47245-9.7658-9.47245z" fill="url(#a)"/><path d="m6.13575 14.4715 2.86875-4.5515c.10792-.17116.25013-.3181.41767-.43157.16753-.11347.35675-.191.55574-.22771s.40339-.03181.60039.01441.3823.13274.5442.25412l2.2817 1.71095c.1019.0765.2259.1176.3533.1173.1273-.0004.2511-.0422.3525-.1193l3.0812-2.3382c.4113-.312.9483.18.673.61675l-2.8687 4.55125c-.1079.1712-.2501.3181-.4177.4316-.1675.1134-.3567.191-.5557.2277s-.4034.0318-.6004-.0144-.3823-.1328-.5442-.2542l-2.2818-1.7112c-.1019-.0763-.2259-.1174-.3532-.1169-.1274.0004-.25111.0424-.3525.1194l-3.08125 2.3385c-.4115.312-.94825-.1803-.673-.617z" fill="#fff"/></g></svg>

<svg width="24" height="24" viewBox="0 0 24 24" fill="none" xmlns="http://www.w3.org/2000/svg">
<path fill-rule="evenodd" clip-rule="evenodd" d="M12 2.2285C6.49875 2.2285 2.23425 6.25825 2.23425 11.701C2.23425 14.5482 3.40125 17.0085 5.30125 18.7075C5.38049 18.7776 5.44462 18.8632 5.48974 18.9589C5.53487 19.0546 5.56005 19.1585 5.56375 19.2642L5.61675 21.0018C5.63375 21.5555 6.20625 21.9162 6.71325 21.6925L8.6515 20.8367C8.81581 20.7642 9.00013 20.7507 9.17325 20.7985C10.0944 21.0497 11.0452 21.1759 12 21.1737C17.5013 21.1737 21.7658 17.1442 21.7658 11.7012C21.7658 6.25825 17.5013 2.22875 12 2.22875V2.2285Z" fill="#0866FF"/>
<path fill-rule="evenodd" clip-rule="evenodd" d="M6.13575 14.4715L9.0045 9.92C9.11242 9.74884 9.25463 9.6019 9.42217 9.48843C9.5897 9.37496 9.77892 9.29743 9.97791 9.26072C10.1769 9.22401 10.3813 9.22891 10.5783 9.27513C10.7753 9.32135 10.9606 9.40787 11.1225 9.52925L13.4042 11.2402C13.5061 11.3167 13.6301 11.3578 13.7575 11.3575C13.8848 11.3571 14.0086 11.3153 14.11 11.2382L17.1912 8.9C17.6025 8.588 18.1395 9.08 17.8642 9.51675L14.9955 14.068C14.8876 14.2392 14.7454 14.3861 14.5778 14.4996C14.4103 14.613 14.2211 14.6906 14.0221 14.7273C13.8231 14.764 13.6187 14.7591 13.4217 14.7129C13.2247 14.6667 13.0394 14.5801 12.8775 14.4587L10.5957 12.7475C10.4938 12.6712 10.3698 12.6301 10.2425 12.6306C10.1151 12.631 9.99139 12.673 9.89 12.75L6.80875 15.0885C6.39725 15.4005 5.8605 14.9082 6.13575 14.4715Z" fill="white"/>
</svg>
